wp-content/themes/sd-accesslasers/public/images/application/icons/application-6.svg

<?xml version="1.0" encoding="UTF-8"?>
<svg width="120px" height="120px" viewBox="0 0 120 120" version="1.1" xmlns="http://www.w3.org/2000/svg" xmlns:xlink="http://www.w3.org/1999/xlink">
    <!-- Generator: Sketch 55 (78076) - https://sketchapp.com -->
    <title>6</title>
    <desc>Created with Sketch.</desc>
    <g id="Home" stroke="none" stroke-width="1" fill="none" fill-rule="evenodd">
        <g id="AL_Home-Copy" transform="translate(-1457.000000, -2445.000000)" fill="currentColor" fill-rule="nonzero" stroke="currentColor" stroke-width="0.3">
            <g id="Features" transform="translate(195.000000, 1665.000000)">
                <g id="Icons">
                    <g id="3" transform="translate(1123.000000, 710.000000)">
                        <g id="icon" transform="translate(139.000000, 70.000000)">
                            <g id="molecular" transform="translate(10.000000, 10.000000)">
                                <polygon id="Path" points="89.2578125 68.1892395 95.0759887 71.5652465 95.0759887 88.2644652 80.6968689 96.6072082 66.3185119 88.2644652 66.3185119 71.5652465 80.6968689 63.2217406 86.7195129 66.7167664 88.192749 64.1784668 80.6968689 59.828949 64.8513793 69.0238953 50.4722596 60.6803895 50.4722596 42.2912598 43.6500549 38.332367 42.1775818 40.8706664 47.5379943 43.9811707 47.5379943 60.6803895 33.1588746 69.0238953 18.7805176 60.6803895 18.7805176 43.9811707 33.1588746 35.6376648 39.6392822 39.3981934 41.1117555 36.8598937 34.626007 33.0963135 34.626007 14.7079469 17.313385 4.66156016 -2.80747647e-14 14.7079469 -2.80747647e-14 23.1239318 2.93426523 23.1239318 2.93426523 16.3970947 17.313385 8.05435176 31.691742 16.3970947 31.691742 33.0970764 17.313385 41.4398193 2.93426523 33.0970764 2.93426523 26.0581971 -2.84217094e-14 26.0581971 -2.84217094e-14 34.7862244 15.8462523 43.9811707 15.8462523 60.6803895 -2.80747647e-14 69.8753357 -2.80747647e-14 89.9543762 6.60324102 93.7850953 8.07571406 91.2475586 2.93426523 88.2644652 2.93426523 71.5652465 17.313385 63.2217406 31.691742 71.5652465 31.691742 88.2644652 17.313385 96.6072082 10.6140137 92.7200316 9.14154062 95.2583312 17.313385 100 33.1588746 90.8050537 39.579773 94.53125 41.0522461 91.9929504 34.626007 88.2637023 34.626007 71.5652465 49.005127 63.2217406 63.3842469 71.5652465 63.3842469 88.2637023 49.005127 96.6072082 43.5905457 93.4654236 42.1180725 96.003723 49.005127 100 64.8513793 90.8050537 80.6968689 100 98.0102539 89.9543762 98.0102539 69.8753357 90.7310486 65.6509398"></polygon>
                                <path d="M47.8317262,25.6271363 C51.1886598,25.6271363 54.0855408,23.6259461 55.3970336,20.754242 L62.1772766,22.3754883 C62.071991,23.0209352 62.0147705,23.6816406 62.0147705,24.3560791 C62.0147705,28.5835266 64.1716004,32.3158264 67.4423219,34.513092 L65.1123047,37.6579285 C64.2356873,37.3428344 63.2919313,37.1696473 62.3077393,37.1696473 C57.7232361,37.1696473 53.9939881,40.8996582 53.9939881,45.4841613 C53.9939881,50.0686645 57.7232361,53.7979125 62.3077393,53.7979125 C66.8922424,53.7979125 70.6222535,50.0686645 70.6222535,45.4841613 C70.6222535,42.9412842 69.4732666,40.662384 67.6696777,39.1365051 L70.0973512,35.8581543 C71.3920594,36.3265992 72.7874756,36.5829469 74.2416383,36.5829469 C80.9829711,36.5829469 86.4685059,31.098175 86.4685059,24.3560791 C86.4685059,21.9818115 85.785675,19.7654725 84.6099854,17.8878785 L87.3237609,15.4098512 C88.5856629,16.1827088 90.0680543,16.6282654 91.6526795,16.6282654 C96.2371826,16.6282654 99.9664307,12.8990174 99.9664307,8.31451406 C99.9664307,3.73001094 96.2371826,0 91.6526795,0 C87.0674133,0 83.3381652,3.73001094 83.3381652,8.31451406 C83.3381652,10.2508545 84.0057373,12.0338439 85.1203918,13.4483338 L82.7636719,15.599823 C80.5595398,13.4544373 77.5527953,12.1292113 74.2416383,12.1292113 C69.2031859,12.1292113 64.8674012,15.1924133 62.9981994,19.5549012 L56.1218262,17.9107666 C56.1363221,17.7131652 56.1454773,17.5140381 56.1454773,17.313385 C56.1454773,12.7288818 52.4162293,8.9988709 47.8317262,8.9988709 C43.2472229,8.9988709 39.5172119,12.7288818 39.5172119,17.313385 C39.5172119,21.8978883 43.2472229,25.6271363 47.8317262,25.6271363 L47.8317262,25.6271363 Z M91.6526795,2.93426523 C94.6189881,2.93426523 97.0321656,5.34820547 97.0321656,8.31451406 C97.0321656,11.2808227 94.6189881,13.6940002 91.6526795,13.6940002 C88.6856078,13.6940002 86.2724305,11.2808227 86.2724305,8.31451406 C86.2724305,5.34820547 88.6856078,2.93426523 91.6526795,2.93426523 Z M67.6879883,45.4841613 C67.6879883,48.4504699 65.2748107,50.8636475 62.3077393,50.8636475 C59.3414307,50.8636475 56.9282531,48.4504699 56.9282531,45.4841613 C56.9282531,42.5178527 59.3414307,40.1039123 62.3077393,40.1039123 C65.2748107,40.1039123 67.6879883,42.5178527 67.6879883,45.4841613 Z M74.2416383,15.0634766 C79.3647766,15.0634766 83.5334777,19.2321777 83.5334777,24.3560791 C83.5334777,29.4792176 79.3647766,33.6479188 74.2416383,33.6479188 C69.1177367,33.6479188 64.9490355,29.4792176 64.9490355,24.3560791 C64.9490355,19.2321777 69.1177367,15.0634766 74.2416383,15.0634766 L74.2416383,15.0634766 Z M47.8317262,11.9331359 C50.7980348,11.9331359 53.2112121,14.3470764 53.2112121,17.313385 C53.2112121,20.2796936 50.7980348,22.6928711 47.8317262,22.6928711 C44.8646545,22.6928711 42.451477,20.2796936 42.451477,17.313385 C42.451477,14.3470764 44.8646545,11.9331359 47.8317262,11.9331359 L47.8317262,11.9331359 Z" id="Shape"></path>
                                <polygon id="Path" points="59.7190857 86.9979859 58.2458496 84.4596863 49.005127 89.8223877 44.8410035 87.4053955 43.3677674 89.9436951 49.005127 93.2144164"></polygon>
                                <polygon id="Path" points="38.2896424 87.0010375 39.7621154 84.4627381 42.300415 85.9359742 40.8271789 88.4735107"></polygon>
                                <polygon id="Path" points="92.1417236 85.7292176 92.1417236 73.2551574 86.5097047 69.9874879 85.0372314 72.5257873 89.2066955 74.9450684 89.2066955 85.7292176"></polygon>
                                <polygon id="Path" points="79.9606324 69.5854188 81.4331055 67.0471191 83.9714051 68.5203553 82.4981689 71.0578918"></polygon>
                                <polygon id="Path" points="6.59637461 87.0002746 8.06961055 84.4627381 12.9699707 87.3062133 11.4974977 89.8445129"></polygon>
                                <polygon id="Path" points="14.0350342 91.317749 15.5082703 88.7802125 18.0465699 90.2526855 16.5733338 92.7909852"></polygon>
                                <polygon id="Path" points="5.86853027 27.6275635 8.8035584 27.6275635 8.8035584 30.5618285 5.86853027 30.5618285"></polygon>
                                <polygon id="Path" points="5.86853027 18.9323426 8.8035584 18.9323426 8.8035584 24.6925354 5.86853027 24.6925354"></polygon>
                                <polygon id="Path" points="32.421875 41.9990539 33.8951111 39.4607543 36.4334105 40.9332275 34.9601746 43.4715271"></polygon>
                                <polygon id="Path" points="44.6037293 58.1451416 44.6037293 45.6710816 38.9717102 42.4034119 37.4992371 44.9417113 41.6687012 47.3609924 41.6687012 58.1451416"></polygon>
                                <path d="M77.6649475,24.3560791 L80.5992127,24.3560791 C80.5992127,20.8496094 77.7473449,17.9977418 74.2416383,17.9977418 L74.2416383,20.9320068 C76.1291504,20.9320068 77.6649475,22.4685668 77.6649475,24.3560791 L77.6649475,24.3560791 Z" id="Path"></path>
                            </g>
                        </g>
                    </g>
                </g>
            </g>
        </g>
    </g>
</svg>

<svg width="120" height="120" viewBox="0 0 120 120" version="1.1" xmlns="http://www.w3.org/2000/svg"><g id="Home" stroke="none" stroke-width="1" fill="none" fill-rule="evenodd"><g id="AL_Home-Copy" transform="translate(-1457 -2445)" fill="currentColor" fill-rule="nonzero" stroke="currentColor" stroke-width=".3"><g id="Features" transform="translate(195 1665)"><g id="Icons"><g id="3" transform="translate(1123 710)"><g id="icon" transform="translate(139 70)"><g id="molecular" transform="translate(10 10)"><path id="Path" d="M89.258 68.19l5.818 3.375v16.7l-14.38 8.342-14.377-8.343V71.565l14.378-8.343 6.023 3.495 1.473-2.539-7.496-4.35-15.846 9.196-14.379-8.344V42.291l-6.822-3.959-1.472 2.539 5.36 3.11v16.7l-14.38 8.343-14.377-8.344V43.981l14.378-8.343 6.48 3.76 1.473-2.538-6.486-3.764V14.708L17.313 4.662 0 14.708v8.416h2.934v-6.727l14.38-8.343 14.378 8.343v16.7L17.313 41.44 2.934 33.097v-7.039H0v8.728l15.846 9.195v16.7L0 69.874v20.08l6.603 3.83 1.473-2.537-5.142-2.984V71.565l14.38-8.343 14.378 8.343v16.7l-14.379 8.342-6.699-3.887-1.472 2.538L17.313 100l15.846-9.195 6.42 3.726 1.473-2.538-6.426-3.73V71.566l14.38-8.343 14.378 8.343v16.699l-14.379 8.343-5.414-3.142-1.473 2.539L49.005 100l15.846-9.195L80.697 100 98.01 89.954V69.875l-7.279-4.224z"/><path d="M47.832 25.627c3.357 0 6.254-2.001 7.565-4.873l6.78 1.621a12.287 12.287 0 0 0-.162 1.981c0 4.228 2.157 7.96 5.427 10.157l-2.33 3.145a8.274 8.274 0 0 0-2.804-.488c-4.585 0-8.314 3.73-8.314 8.314 0 4.585 3.73 8.314 8.314 8.314s8.314-3.73 8.314-8.314a8.299 8.299 0 0 0-2.952-6.347l2.427-3.279c1.295.469 2.69.725 4.145.725 6.741 0 12.227-5.485 12.227-12.227 0-2.374-.683-4.59-1.859-6.468l2.714-2.478a8.262 8.262 0 0 0 4.329 1.218c4.584 0 8.313-3.729 8.313-8.313C99.966 3.73 96.237 0 91.653 0c-4.586 0-8.315 3.73-8.315 8.315a8.27 8.27 0 0 0 1.782 5.133L82.764 15.6a12.185 12.185 0 0 0-8.522-3.47c-5.039 0-9.375 3.062-11.244 7.425l-6.876-1.644a8.16 8.16 0 0 0 .023-.598C56.145 12.73 52.416 9 47.832 9c-4.585 0-8.315 3.73-8.315 8.314 0 4.585 3.73 8.314 8.315 8.314h0zm43.82-22.693a5.386 5.386 0 0 1 5.38 5.38 5.386 5.386 0 0 1-5.38 5.38 5.386 5.386 0 0 1-5.38-5.38 5.386 5.386 0 0 1 5.38-5.38zm-23.964 42.55a5.386 5.386 0 0 1-5.38 5.38 5.386 5.386 0 0 1-5.38-5.38 5.386 5.386 0 0 1 5.38-5.38 5.386 5.386 0 0 1 5.38 5.38zm6.554-30.42c5.123 0 9.291 4.168 9.291 9.292 0 5.123-4.168 9.292-9.291 9.292-5.124 0-9.293-4.169-9.293-9.292 0-5.124 4.169-9.293 9.293-9.293h0zm-26.41-3.13a5.386 5.386 0 0 1 5.38 5.38 5.386 5.386 0 0 1-5.38 5.379 5.386 5.386 0 0 1-5.38-5.38 5.386 5.386 0 0 1 5.38-5.38h0z" id="Shape"/><path id="Path" d="M59.72 86.998l-1.474-2.538-9.24 5.362-4.165-2.417-1.473 2.539 5.637 3.27zm-21.43.003l1.472-2.538 2.538 1.473-1.473 2.538zm53.852-1.271V73.254l-5.632-3.268-1.473 2.539 4.17 2.42v10.783zM79.96 69.585l1.473-2.538 2.538 1.473-1.473 2.538zM6.596 87l1.474-2.537 4.9 2.843-1.473 2.539zm7.439 4.318l1.473-2.538 2.539 1.473-1.474 2.538zm-8.166-63.69h2.935v2.934H5.869zm0-8.696h2.935v5.76H5.869zM32.422 42l1.473-2.54 2.538 1.473-1.473 2.539zm12.182 16.145V45.671l-5.632-3.268-1.473 2.539 4.17 2.419v10.784zm33.061-33.789h2.934a6.365 6.365 0 0 0-6.357-6.358v2.934a3.428 3.428 0 0 1 3.423 3.424h0z"/></g></g></g></g></g></g></g></svg>
